assets/icons/arrow_down.svg

<svg width="25" height="25" viewBox="0 0 25 25" fill="none" xmlns="http://www.w3.org/2000/svg">
<g id="arrow_down">
<path id="iconDefault" fill-rule="evenodd" clip-rule="evenodd" d="M12.5 2.70837C12.8452 2.70837 13.125 2.9882 13.125 3.33337V20.2749L19.5848 14.5329C19.8428 14.3036 20.2378 14.3268 20.4671 14.5848C20.6965 14.8428 20.6732 15.2378 20.4152 15.4672L12.9152 22.1338C12.6784 22.3443 12.3216 22.3443 12.0848 22.1338L4.58478 15.4672C4.32679 15.2378 4.30355 14.8428 4.53288 14.5848C4.7622 14.3268 5.15724 14.3036 5.41523 14.5329L11.875 20.2749V3.33337C11.875 2.9882 12.1548 2.70837 12.5 2.70837Z" fill="#18303F"/>
</g>
</svg>

<svg width="25" height="25" viewBox="0 0 25 25" fill="none"><g id="arrow_down"><path id="iconDefault" fill-rule="evenodd" clip-rule="evenodd" d="M12.5 2.708c.345 0 .625.28.625.625v16.942l6.46-5.742a.625.625 0 1 1 .83.934l-7.5 6.667a.625.625 0 0 1-.83 0l-7.5-6.667a.625.625 0 0 1 .83-.934l6.46 5.742V3.333c0-.345.28-.625.625-.625Z" fill="#18303F"/></g></svg>
